X: 27755
T: Morning Star, The
R: reel
M: 4/4
K: Gmajor
GA|B2 AB AGED|GABd dged|(3BdB AB AGED|GABA G3 A|
B2 AB AGED|GABd dged|(3BdB AB AGED|GABA G3 A||
B2de g3a|gedg edBA|Bdde g3a|(3gbg ed ge (3dBA|
B2de g3a|gedg edBA|Bdde g3e|a3f gedc||

